X: 1
T: Finbar Curtin's
M: 4/4
L: 1/8
C: Brad Hurley
Z: Naka Ishii
R: Reel
Z: NJI
K: AMix
| AG ED EA (3AAA | BA B/c/d ed ge | dB BA B3d | eB BB eB dB |
| AG ED EA AG | Bd BA G3B | dB eB dB AG | DE GA BA A2 :|
| a2 ab ag ed | B/c/d ed ge dB | G2GA GE DE | G2 BG dG BG |
| ae ee g3a | ge de g2 ga | b2ba ge dB |1 DE GA BA A2 :|2 GA BG A4 ||
